X: 37370
T: Sleep Soond Ida Mornin'
R: reel
M: 4/4
K: Aminor
eaag aaef|gedB GABG|E2ag a2ef|gedB A2AG
Eaag a2ef|gedB GABG|Eaag a3a|gedB A3B||
cAEA cAeA|BcdB ~G3z|cAeA cAEA|BAGB A3B|
cAeA cAeA|BcdB ~G3B|ABcd egfa|gedB A2ag||

